icons/chevrons-up.svg

<svg width="24" height="24" viewBox="0 0 24 24" fill="none" xmlns="http://www.w3.org/2000/svg">
<path fill-rule="evenodd" clip-rule="evenodd" d="M11.2929 5.29289C11.6834 4.90237 12.3166 4.90237 12.7071 5.29289L17.7071 10.2929C18.0976 10.6834 18.0976 11.3166 17.7071 11.7071C17.3166 12.0976 16.6834 12.0976 16.2929 11.7071L12 7.41421L7.70711 11.7071C7.31658 12.0976 6.68342 12.0976 6.29289 11.7071C5.90237 11.3166 5.90237 10.6834 6.29289 10.2929L11.2929 5.29289ZM12 12C12.2652 12 12.5196 12.1054 12.7071 12.2929L17.7071 17.2929C18.0976 17.6834 18.0976 18.3166 17.7071 18.7071C17.3166 19.0976 16.6834 19.0976 16.2929 18.7071L12 14.4142L7.70711 18.7071C7.31658 19.0976 6.68342 19.0976 6.29289 18.7071C5.90237 18.3166 5.90237 17.6834 6.29289 17.2929L11.2929 12.2929C11.4804 12.1054 11.7348 12 12 12Z" fill="black"/>
</svg>

<svg
  width="24"
  height="24"
  viewBox="0 0 24 24"
  xmlns="http://www.w3.org/2000/svg"
>
  <path
    fill-rule="evenodd"
    clip-rule="evenodd"
    d="M11.293 5.293a1 1 0 0 1 1.414 0l5 5a1 1 0 0 1-1.414 1.414L12 7.414l-4.293 4.293a1 1 0 0 1-1.414-1.414l5-5zM12 12a1 1 0 0 1 .707.293l5 5a1 1 0 0 1-1.414 1.414L12 14.414l-4.293 4.293a1 1 0 0 1-1.414-1.414l5-5A1 1 0 0 1 12 12z"
  />
</svg>
